X: 3
T: A Kerry
R: reel
M: 4/4
L: 1/8
K: Edor
Beed Bcdc|BFAF EFGA|B/B/B ed Bcdc|BFAF DEFA|Be e/e/e Bcdc|BFAF EFGA|Beed Bcde|dBAF DEFA||B/B/B eB dfaf|edBc cBBA| ~B3c df a/a/f|edBc decA|B/B/B eB dfaf|edBc cBBA|fgge ~f3e|dBAF EFGA||


Tune 1808	Setting 1808

